X:1
T:Title
%%score 1 { ( 2 4 ) | 3 }
L:1/8
Q:1/4=100
M:4/4
K:F
V:1 treble nm="Bright Piano"
V:2 bass nm="Bright Piano"
V:4 bass 
V:3 bass 
V:1
 [DF]2 [DF]2 [DB]2 [B,D]2 | [B,_E]2 [EG]2 [DF]4 | [DB]2 [FB]2 [FA]2 [FB]2 | %3
w: Christian~F�rchtegott~Gellert * * *|||
 [Fc]2 [Fd]2 [Fd]2 [Fc]2 | [DF]2 [DF]2 [DB]2 [EG]2 | [FA]2 [DB]2 [Cc]4 | [Fc]2 [_Ec]2 [Dd]2 [GB]2 | %7
w: ||||
 [FA]2 [EG]2 [CG]2 [CF]2 | [CF]2 [FA]2 [_Ec]2 [EA]2 | [DB]2 [Fd]2 [Fc]4 | %10
w: |||
 [F_e]2 [Fc]2 [Fd]2 [FB]2 | [Fd]2 [_Ec]2 [DB]4 |] %12
w: ||
V:2
 B,2 B,2 F,2 F,2 | G,2 B,2 B,4 | F,2 B,2 C2 B,2 | A,2 B,2 B,2 A,2 | B,2 B,2 G,2 C2 | C2 z F, G,4 | %6
 A,2 F,2 F,2[K:treble] D2 | C2 C2 CB,[K:bass] A,2 | A,2 C2 F,2 F,2 | F,2 B,2 A,4 | C2 A,2 B,2 B,2 | %11
 B,2 A,2 F,4 |] %12
V:3
 B,,2 B,,2 B,,2 B,,2 | _E,2 E,2 B,,4 | B,,2 D,2 C,2 D,2 | C,2 B,,2 F,2 F,2 | B,,2 B,,2 z2 C,2 | %5
 F,2 z2 E,4 | F,2 A,,2 B,,2 B,,2 | C,2 C,2 E,2 F,2 | F,2 F,2 A,,2 C,2 | B,,2 B,,2 F,4 | %10
 A,,2 C,2 B,,2 D,2 | F,2 [F,,F,]2 B,,4 |] %12
V:4
 x8 | x8 | x8 | x8 | x8 | z2 G,2 z4 | x6[K:treble] x2 | x6[K:bass] x2 | x8 | x8 | x8 | x8 |] %12

